svg/24/hotkey--filled.svg

<svg width="24" height="24" viewBox="0 0 24 24" fill="currentColor" xmlns="http://www.w3.org/2000/svg"><path fill-rule="evenodd" clip-rule="evenodd" d="M3 5C3 3.89543 3.89543 3 5 3H19C20.1046 3 21 3.89543 21 5V9C21 10.1046 20.1046 11 19 11H5C3.89543 11 3 10.1046 3 9V5ZM6 6.75C6 6.33579 6.33579 6 6.75 6H11.25C11.6642 6 12 6.33579 12 6.75C12 7.16421 11.6642 7.5 11.25 7.5H6.75C6.33579 7.5 6 7.16421 6 6.75Z"/><path d="M3.75 16C3.33579 16 3 16.3358 3 16.75C3 17.1642 3.33579 17.5 3.75 17.5H5.75V19.5C5.75 19.9142 6.08579 20.25 6.5 20.25C6.91421 20.25 7.25 19.9142 7.25 19.5V17.5H9.25C9.66421 17.5 10 17.1642 10 16.75C10 16.3358 9.66421 16 9.25 16H7.25V14C7.25 13.5858 6.91421 13.25 6.5 13.25C6.08579 13.25 5.75 13.5858 5.75 14V16H3.75Z"/><path fill-rule="evenodd" clip-rule="evenodd" d="M12 15C12 13.8954 12.8954 13 14 13H19C20.1046 13 21 13.8954 21 15V19C21 20.1046 20.1046 21 19 21H14C12.8954 21 12 20.1046 12 19V15ZM15 16.75C15 16.3358 15.3358 16 15.75 16H17.25C17.6642 16 18 16.3358 18 16.75C18 17.1642 17.6642 17.5 17.25 17.5H15.75C15.3358 17.5 15 17.1642 15 16.75Z"/></svg>

<svg xmlns="http://www.w3.org/2000/svg" width="24" height="24" fill="currentColor" viewBox="0 0 24 24">
  <path fill-rule="evenodd" d="M3 5a2 2 0 0 1 2-2h14a2 2 0 0 1 2 2v4a2 2 0 0 1-2 2H5a2 2 0 0 1-2-2V5Zm3 2.25a.75.75 0 0 1 .75-.75h4.5a.75.75 0 0 1 0 1.5h-4.5A.75.75 0 0 1 6 7.25Z" clip-rule="evenodd"/>
  <path d="M3.75 16a.75.75 0 0 0 0 1.5h2v2a.75.75 0 0 0 1.5 0v-2h2a.75.75 0 0 0 0-1.5h-2v-2a.75.75 0 0 0-1.5 0v2h-2Z"/>
  <path fill-rule="evenodd" d="M12 15a2 2 0 0 1 2-2h5a2 2 0 0 1 2 2v4a2 2 0 0 1-2 2h-5a2 2 0 0 1-2-2v-4Zm3 2.25a.75.75 0 0 1 .75-.75h1.5a.75.75 0 0 1 0 1.5h-1.5a.75.75 0 0 1-.75-.75Z" clip-rule="evenodd"/>
</svg>
